src/assets/svgs/augmented-finance-logo.svg

<?xml version="1.0" encoding="UTF-8" standalone="no"?>
<svg
   width="28"
   height="32"
   viewBox="0 0 28 32"
   fill="none"
   version="1.1"
   id="svg4"
   sodipodi:docname="augmented-finance-logo.svg"
   inkscape:version="1.1.2 (0a00cf5339, 2022-02-04, custom)"
   xmlns:inkscape="http://www.inkscape.org/namespaces/inkscape"
   xmlns:sodipodi="http://sodipodi.sourceforge.net/DTD/sodipodi-0.dtd"
   xmlns="http://www.w3.org/2000/svg"
   xmlns:svg="http://www.w3.org/2000/svg">
  <defs
     id="defs8" />
  <sodipodi:namedview
     id="namedview6"
     pagecolor="#505050"
     bordercolor="#eeeeee"
     borderopacity="1"
     inkscape:pageshadow="0"
     inkscape:pageopacity="0"
     inkscape:pagecheckerboard="0"
     showgrid="false"
     inkscape:zoom="22.46875"
     inkscape:cx="14.019471"
     inkscape:cy="15.977747"
     inkscape:window-width="1920"
     inkscape:window-height="1131"
     inkscape:window-x="0"
     inkscape:window-y="32"
     inkscape:window-maximized="1"
     inkscape:current-layer="svg4" />
  <path
     opacity="0.5"
     d="M14 32C14 32 13.9835 32 14 32C13.9835 32 13.9835 32 13.9835 32C13.8518 32 13.7365 31.9663 13.6212 31.8989L8.69647 29.3726C8.28471 29.1705 8.12 28.6653 8.33412 28.2442C8.53176 27.8232 9.02588 27.6547 9.43765 27.8737L13.1765 29.7937V25.2632C13.1765 24.7916 13.5388 24.4211 14 24.4211C14.4612 24.4211 14.8235 24.7916 14.8235 25.2632V29.7937L18.5788 27.8737C18.9906 27.6716 19.4847 27.84 19.6824 28.2442C19.88 28.6653 19.7153 29.1705 19.32 29.3726L14.3953 31.8989C14.28 31.9663 14.1482 32 14.0165 32C14.0165 32 14.0165 32 14 32C14 32 14.0165 32 14 32ZM22.2353 27.7895C21.9388 27.7895 21.6424 27.6211 21.4941 27.3179C21.2965 26.8968 21.4612 26.3916 21.8565 26.1895L25.3318 24.4211L21.8565 22.6526C21.4447 22.4505 21.28 21.9453 21.4941 21.5242C21.6918 21.1032 22.1859 20.9347 22.5976 21.1537L26.3529 23.0568V18.5263C26.3529 18.0547 26.7153 17.6842 27.1765 17.6842C27.6376 17.6842 28 18.0547 28 18.5263V24.4042C28 24.5221 27.9835 24.6568 27.9341 24.7579C27.9341 24.7747 27.9176 24.7916 27.9012 24.8084C27.8188 24.9768 27.6871 25.0947 27.5388 25.1621L22.5976 27.6884C22.4824 27.7558 22.3671 27.7895 22.2353 27.7895ZM5.76471 27.7895C5.63294 27.7895 5.51765 27.7558 5.40235 27.7053L0.477647 25.1789C0.329412 25.1116 0.197647 24.9768 0.115294 24.8253C0.0988235 24.8084 0.0988235 24.7916 0.0823529 24.7747C0.0164706 24.64 0 24.5221 0 24.4042V18.5263C0 18.0547 0.362353 17.6842 0.823529 17.6842C1.28471 17.6842 1.64706 18.0547 1.64706 18.5263V23.0568L5.40235 21.1368C5.81412 20.9347 6.30824 21.1032 6.50588 21.5074C6.70353 21.9284 6.53882 22.4337 6.14353 22.6358L2.66824 24.4211L6.14353 26.1895C6.55529 26.3916 6.72 26.8968 6.50588 27.3179C6.35765 27.6211 6.06118 27.7895 5.76471 27.7895ZM14 20.2105C13.5388 20.2105 13.1765 19.84 13.1765 19.3684V14.8379L8.69647 12.5474C8.28471 12.3284 8.12 11.8232 8.31765 11.4189C8.51529 10.9979 9.00941 10.8295 9.42118 11.0484L14 13.3726L18.5788 11.0316C18.9906 10.8295 19.4847 10.9979 19.6824 11.4021C19.88 11.8232 19.7153 12.3284 19.32 12.5305L14.8235 14.8379V19.3684C14.8235 19.84 14.4612 20.2105 14 20.2105ZM27.1765 14.3158C26.7153 14.3158 26.3529 13.9453 26.3529 13.4737V8.94316L22.5976 10.8632C22.1859 11.0653 21.6918 10.8968 21.4941 10.4926C21.2965 10.0884 21.4612 9.56632 21.8565 9.36421L25.3318 7.59579L21.8565 5.82737C21.4447 5.62526 21.28 5.12 21.4941 4.69895C21.7082 4.27789 22.1859 4.10947 22.5976 4.32842L27.5224 6.85474C27.6706 6.92211 27.8024 7.05684 27.8847 7.20842C27.9012 7.22526 27.9012 7.24211 27.9176 7.25895C27.9835 7.36 28 7.4779 28 7.59579V13.4737C28 13.9453 27.6376 14.3158 27.1765 14.3158ZM0.823529 14.3158C0.362353 14.3158 0 13.9453 0 13.4737V7.59579C0 7.4779 0.0164706 7.36 0.0658824 7.24211C0.0658824 7.22526 0.0823529 7.20842 0.0988235 7.19158C0.181176 7.02316 0.312941 6.90526 0.461176 6.83789L5.40235 4.31158C5.81412 4.10947 6.30824 4.27789 6.50588 4.68211C6.70353 5.10316 6.53882 5.60842 6.14353 5.81053L2.66824 7.57895L6.14353 9.34737C6.55529 9.54947 6.72 10.0547 6.50588 10.4758C6.29176 10.8968 5.79765 11.0653 5.40235 10.8632L1.64706 8.94316V13.4737C1.64706 13.9453 1.28471 14.3158 0.823529 14.3158ZM14 7.57895C13.5388 7.57895 13.1765 7.20842 13.1765 6.73684V2.20632L9.42118 4.12632C9.02588 4.32842 8.53177 4.16 8.31765 3.73895C8.12 3.33474 8.28471 2.82947 8.69647 2.61053L13.6212 0.0842105C13.72 0.0336842 13.8518 0 13.9835 0C14 0 14 0 14.0165 0C14.1482 0 14.2635 0.0336842 14.3788 0.101053L19.3035 2.62737C19.7153 2.82947 19.88 3.33474 19.6659 3.75579C19.4682 4.17684 18.9741 4.34526 18.5624 4.12632L14.8235 2.20632V6.73684C14.8235 7.20842 14.4612 7.57895 14 7.57895Z"
     fill="white"
     id="path2"
     style="fill:#3d3eda;fill-opacity:1" />
</svg>

<svg width="28" height="32" fill="none" xmlns="http://www.w3.org/2000/svg"><path opacity=".5" d="M14 32s-.017 0 0 0h-.017a.693.693 0 0 1-.362-.101l-4.925-2.526a.83.83 0 0 1-.362-1.129.796.796 0 0 1 1.104-.37l3.739 1.92v-4.53c0-.472.362-.843.823-.843.461 0 .823.37.823.842v4.53l3.756-1.92a.823.823 0 0 1 1.103.371c.198.421.033.927-.362 1.129l-4.925 2.526a.752.752 0 0 1-.378.101H14s.017 0 0 0Zm8.235-4.21a.83.83 0 0 1-.74-.472c-.198-.421-.034-.926.361-1.129l3.476-1.768-3.476-1.768a.83.83 0 0 1-.362-1.129.796.796 0 0 1 1.104-.37l3.755 1.903v-4.53c0-.472.362-.843.823-.843.462 0 .824.37.824.842v5.878a.845.845 0 0 1-.066.354c0 .017-.016.034-.033.05a.744.744 0 0 1-.362.354l-4.941 2.526a.693.693 0 0 1-.363.102Zm-16.47 0a.882.882 0 0 1-.363-.085L.478 25.18a.824.824 0 0 1-.363-.354c-.016-.017-.016-.033-.033-.05a.8.8 0 0 1-.082-.37v-5.879c0-.471.362-.842.824-.842.46 0 .823.37.823.842v4.53l3.755-1.92a.823.823 0 0 1 1.104.371c.198.421.033.927-.362 1.129L2.668 24.42l3.476 1.768a.83.83 0 0 1 .362 1.129.83.83 0 0 1-.741.471ZM14 20.21a.825.825 0 0 1-.823-.842v-4.53l-4.48-2.29a.861.861 0 0 1-.38-1.13.796.796 0 0 1 1.104-.37L14 13.373l4.579-2.341a.823.823 0 0 1 1.103.37c.198.421.033.926-.362 1.129l-4.497 2.307v4.53a.825.825 0 0 1-.823.843Zm13.177-5.894a.825.825 0 0 1-.824-.842v-4.53l-3.755 1.92a.823.823 0 0 1-1.104-.371c-.197-.405-.033-.927.363-1.129l3.475-1.768-3.476-1.769a.83.83 0 0 1-.362-1.128c.214-.421.692-.59 1.104-.37l4.924 2.526c.149.067.28.202.363.353.016.017.016.034.033.05a.602.602 0 0 1 .082.338v5.878a.825.825 0 0 1-.823.842Zm-26.353 0A.825.825 0 0 1 0 13.474V7.596c0-.118.016-.236.066-.354 0-.017.016-.034.033-.05a.744.744 0 0 1 .362-.354l4.941-2.526a.823.823 0 0 1 1.104.37c.198.421.033.926-.362 1.129L2.668 7.579l3.476 1.768a.83.83 0 0 1 .362 1.129c-.214.42-.708.59-1.104.387l-3.755-1.92v4.53a.825.825 0 0 1-.823.843ZM14 7.579a.825.825 0 0 1-.823-.842v-4.53L9.42 4.126c-.395.201-.89.033-1.103-.388a.861.861 0 0 1 .378-1.128L13.621.084A.823.823 0 0 1 13.983 0h.034c.131 0 .247.034.362.101l4.925 2.526a.83.83 0 0 1 .362 1.129.796.796 0 0 1-1.104.37l-3.739-1.92v4.53A.825.825 0 0 1 14 7.58Z" fill="#fff" style="fill:#3d3eda;fill-opacity:1"/></svg>
